X:78
T


*****************************


17000 3 1.1054093 

<starhpilla-1at ent|:-and.
D:Nonne Gartnnipe
H:Simher 481
Z:id:hn-reel-58
M:C|
K:Dmix
BedB BAFA|d2ed f2de


*****************************


17100 3 1.4902489 

<starhoph>est easthre.
D:Chiery Puppled De..cot playn, The
T:Kess Costranneathe of Two freny.
D:Frovingel


*****************************


17200 3 0.6077802 

<star.bothie | breat he athess\'aidh.
D:Crankie Coabed the the manter spati's Up twewd to Mulstain Pothrn


*****************************


17300 3 1.1806667 

<start|
ABcA bA~A2|fd~f2 fdcA|~d3cBA ~G3|d2=B2 gfge|
[1 dB~B2 gB~B2|g2be ~g3e|dBGB A2dB||
|:(3ABA ~F2 {ce


*****************************


17400 3 1.3921856 

<starhoth ^c-scecid ea:|
<end>
<start>
